X: 16460
T: Hag With The Money, The
R: jig
M: 6/8
K: Dmixolydian
dc|A3 AGE|G3 B/c/dc|A3 AGE|GED B/c/dc|
A3 AGE|G3 A3|B/c/de dcA|GEG B/c/dc|
A3 AGE|G3 B/c/dc|A3 AGE|GED B/c/dc|
A3 AGE|G3 A3|B/c/de dcA|GEG A3||
d3 edc|ded A3|d3 a2g|edc A3|
d3 edc|de/f/g age|f3 dcA|GEG A3|
d3 edc|ded A3|d3 a2g|edc A3|
d3 edc|de/f/g age|f3 dcA|GEG A3||
dcA AGE|G3 B/c/dc|A3 AGE|GED B/c/dc|
A3 AGE|G3 A3|B/c/de dcA|GEG dcA|
dcA AGE|G3 B/c/dc|A3 AGE|GED B/c/dc|
A3 AGE|G3 A3|B/c/de dcA|GEG A3||
d3 edc|ded A3|d3 a2g|edc A3|
d3 edc|de/f/g age|f3 dcA|GEG A3|
d3 edc|ded A3|d3 a2g|edc A3|
d3 edc|de/f/g age|f3 dcA|GEG A3||

